build/img/sprite_auto.svg

<svg xmlns="http://www.w3.org/2000/svg" xmlns:xlink="http://www.w3.org/1999/xlink"><defs><linearGradient id="paint0_linear" x1="16.842" y1="1.829" x2="52.588" y2="13.732" gradientUnits="userSpaceOnUse"><stop offset="100%" stop-color="#FFC341"/><stop offset=".964" stop-color="#FFD701"/></linearGradient><linearGradient id="paint1_linear" x1="30.632" y1="8.029" x2="55.51" y2="19.074" gradientUnits="userSpaceOnUse"><stop offset="100%" stop-color="#FFC341"/><stop offset=".964" stop-color="#FFD701"/></linearGradient></defs><symbol id="icon-arrow" viewBox="0 0 900 1000"><path fill="#66d0f8" d="M216 0l215 622-215-118L0 622z"/></symbol><symbol id="icon-case" viewBox="0 0 100 125"><path style="text-indent:0;text-transform:none;block-progression:tb" d="M37 15c-3.826 0-7 3.174-7 7v3H12c-3.826 0-7 3.174-7 7v46c0 3.826 3.174 7 7 7h76c3.826 0 7-3.174 7-7V32c0-3.826-3.174-7-7-7H70v-3c0-3.826-3.174-7-7-7zm0 6h26c.606 0 1 .394 1 1v3H36v-3c0-.606.394-1 1-1zM12 31h76c.606 0 1 .394 1 1v6.063C80.053 44.578 65.912 49 50 49c-15.912 0-30.053-4.42-39-10.938V32c0-.606.394-1 1-1zm-1 14.25c7.829 4.748 17.832 7.997 29 9.219V59c0 2.718 2.282 5 5 5h10c2.718 0 5-2.282 5-5v-4.531c11.168-1.222 21.171-4.47 29-9.219V78c0 .606-.394 1-1 1H12c-.606 0-1-.394-1-1zm35 9.688c1.32.056 2.656.062 4 .062 1.344 0 2.68-.006 4-.063V58h-8z" color="#000"/></symbol><symbol id="icon-checkmark"><rect x="3" y="3" width="58" height="58" rx="29" stroke="url(#paint0_linear)" stroke-width="6"/><path d="M18 27.88L32.197 43 66 7" stroke="url(#paint1_linear)" stroke-width="9" stroke-linecap="round" stroke-linejoin="round"/></symbol><symbol id="icon-fb" viewBox="0 0 15 28">
<path d="M11.7171 4.91672H14.2V0.591924C13.7716 0.532991 12.2984 0.400391 10.5827 0.400391C7.00278 0.400391 4.55045 2.65232 4.55045 6.79126V10.6004H0.599976V15.4352H4.55045V27.6004H9.39391V15.4363H13.1846L13.7863 10.6015H9.39278V7.27066C9.39391 5.87326 9.77015 4.91672 11.7171 4.91672Z"/>
</symbol><symbol id="icon-insta" viewBox="0 0 32 32">
<path d="M16 11.2002C13.3531 11.2002 11.2 13.3533 11.2 16.0002C11.2 18.6471 13.3531 20.8002 16 20.8002C18.6468 20.8002 20.8 18.6471 20.8 16.0002C20.8 13.3533 18.6468 11.2002 16 11.2002Z"/>
<path fill-rule="evenodd" clip-rule="evenodd" d="M3.19995 23.4811V8.51926C3.19995 5.5816 5.58136 3.2002 8.51901 3.2002H23.4809C26.4185 3.2002 28.8 5.5816 28.8 8.51926V23.4811C28.8 26.4188 26.4185 28.8002 23.4809 28.8002H8.51901C5.58136 28.8002 3.19995 26.4188 3.19995 23.4811ZM8.74651 13.2885C6.56792 19.6027 12.3975 25.4322 18.7117 23.2536C20.84 22.5196 22.5193 20.8402 23.2534 18.7121C25.432 12.3977 19.6025 6.56816 13.2881 8.74676C11.16 9.48082 9.48058 11.1604 8.74651 13.2885ZM24 8.80016C24.8836 8.80016 25.6 8.08382 25.6 7.20016C25.6 6.31651 24.8836 5.60016 24 5.60016C23.1163 5.60016 22.4 6.31651 22.4 7.20016C22.4 8.08382 23.1163 8.80016 24 8.80016Z"/>
</symbol><symbol id="icon-location" viewBox="0 0 100 125"><path d="M50 16.8c-12.8 0-23.2 10.4-23.2 23.2 0 3.4.8 6.9 2.3 10 2 4.9 18.7 31.1 19.4 32.2.3.5.9.8 1.5.8s1.2-.3 1.5-.8c.7-1.1 17.4-27.4 19.6-32.2 1.5-3.2 2.3-6.6 2.3-10.1-.2-12.6-10.6-23.1-23.4-23.1zm-.1 32c-4.8 0-8.6-3.9-8.6-8.6.1-4.8 4-8.7 8.6-8.7 4.8 0 8.6 3.9 8.6 8.6 0 4.8-3.8 8.7-8.6 8.7z"/></symbol><symbol id="icon-play"><path d="M15 9.5L0 19V0l15 9.5z" fill="#1FC0FC"/></symbol><symbol id="icon-religion" viewBox="21 20 100 115"><path d="M104.4 39.8c1.1-1.1 1.1-2.8.1-3.9l-2-2.1-2 2.1c-1 1.1-1 2.7 0 3.8 1.1 1.1 2.8 1.2 3.9.1zm-4.6 21.5c0 15-11.5 27.4-26.2 28.8v-4.8c12-1.4 21.4-11.6 21.4-24V42.7h-5.5v18.6c0 9.3-6.9 17.1-15.9 18.4v-4.8c6.3-1.3 11.1-6.9 11.1-13.6V42.7h-5.5v18.6c0 3.6-2.4 6.8-5.6 7.9V42.7h-5.5v26.5c-3.3-1.1-5.6-4.2-5.6-7.9V42.7H57v18.6c0 6.7 4.8 12.3 11.1 13.6v4.8c-9-1.3-15.9-9.1-15.9-18.4V42.7h-5.5v18.6c0 12.4 9.4 22.6 21.4 24v4.8c-14.7-1.4-26.2-13.8-26.2-28.8V42.7h-5.5v18.6c0 18.1 14 32.9 31.7 34.3v9.6h-9.9v5.5h25.4v-5.5h-9.9v-9.6c17.7-1.4 31.7-16.2 31.7-34.3V42.7h-5.5v18.6zm-5.6-21.5c1.1-1.1 1.1-2.8.1-3.9l-2-2.1-2 2.1c-1 1.1-1 2.7 0 3.8 1 1.1 2.8 1.2 3.9.1zm-10.3 0c1.1-1 1.1-2.8.1-3.9l-2-2.1-2 2.1c-1 1.1-1 2.7 0 3.8 1 1.1 2.8 1.2 3.9.1zm-11.1 0c1.1-1.1 1.1-2.8.1-3.9l-2-2.1-2 2.1c-1 1.1-1 2.7 0 3.8 1 1.1 2.8 1.2 3.9.1zm-11.1 0c1.1-1.1 1.1-2.8.1-3.9l-2-2.1-2 2.1c-1 1.1-1 2.7 0 3.8 1 1.1 2.7 1.2 3.9.1zm-10.3 0c1.1-1.1 1.1-2.8.1-3.9l-2-2.1-2 2.1c-1 1.1-1 2.7 0 3.8 1 1.1 2.8 1.2 3.9.1zm-10.3 0c1.1-1.1 1.1-2.8.1-3.9l-2-2.1-2 2.1c-1 1.1-1 2.7 0 3.8 1 1.1 2.8 1.2 3.9.1z"/></symbol><symbol id="icon-star" viewBox="8 9 90 100"><path d="M82.386 66.767L72.704 50l9.708-16.813a2.396 2.396 0 00-2.076-3.594H60.922L52.076 14.27a2.4 2.4 0 00-4.152 0l-8.847 15.323H19.663a2.398 2.398 0 00-2.076 3.594L27.295 50l-9.708 16.813a2.398 2.398 0 002.076 3.595h19.414l8.847 15.323a2.397 2.397 0 004.152 0l8.846-15.323h19.414a2.397 2.397 0 002.05-3.641zm-6.201-32.381l-6.247 10.82-6.248-10.82h12.495zM67.171 50l-9.016 15.615H41.844L32.83 50l9.015-15.614h16.311L67.171 50zM50 20.26l5.388 9.332H44.612L50 20.26zM23.813 34.386H36.31l-6.249 10.82-6.248-10.82zm0 31.229l6.248-10.822 6.249 10.822H23.813zM50 79.74l-5.388-9.332h10.776L50 79.74zm13.689-14.125l6.248-10.822 6.247 10.822H63.689z"/></symbol><symbol id="icon-student" viewBox="0 0 100 125"><path d="M49.999 60.049a2.5 2.5 0 01-1.207-.311L1.293 33.566a2.498 2.498 0 01-.001-4.377l47.5-26.227a2.502 2.502 0 012.417 0l47.5 26.227a2.5 2.5 0 01-.002 4.377L51.205 59.738c-.375.207-.79.311-1.206.311zM7.676 31.375l42.323 23.32 42.324-23.32L50 8.006 7.676 31.375z"/><path d="M17.5 54.708a2.5 2.5 0 01-2.5-2.5V41.064a2.5 2.5 0 115 0v11.144a2.5 2.5 0 01-2.5 2.5zm65 0a2.5 2.5 0 01-2.5-2.5V41.064a2.5 2.5 0 115 0v11.144a2.5 2.5 0 01-2.5 2.5z"/><path d="M50 77.517c-19.299 0-35-10.876-35-24.245a2.5 2.5 0 115 0c0 10.611 13.458 19.245 30 19.245s30-8.634 30-19.245a2.5 2.5 0 115 0c0 13.369-15.701 24.245-35 24.245zM26.751 46.092a2.5 2.5 0 01-1.175-4.708l23.116-12.287a2.5 2.5 0 012.347 4.415L27.922 45.799a2.485 2.485 0 01-1.171.293z"/><path d="M26.375 85.226a2.5 2.5 0 01-2.5-2.5V44.975a2.5 2.5 0 115 0v37.751a2.5 2.5 0 01-2.5 2.5z"/><path d="M31.5 97.35H21.25a2.5 2.5 0 01-2.5-2.5V88.1c0-4.204 3.42-7.625 7.625-7.625S34 83.896 34 88.1v6.75a2.5 2.5 0 01-2.5 2.5zm-7.75-5H29V88.1c0-1.447-1.178-2.625-2.625-2.625S23.75 86.652 23.75 88.1v4.25z"/></symbol><symbol id="icon-telegram"><path d="M8.633 11.863l-.364 5.026c.52 0 .746-.22 1.016-.483l2.441-2.291 5.059 3.637c.927.508 1.581.24 1.831-.838l3.32-15.275h.001c.295-1.347-.495-1.874-1.4-1.543L1.022 7.432C-.31 7.939-.29 8.668.795 8.999l4.99 1.523 11.59-7.12c.545-.354 1.04-.158.633.197l-9.375 8.264z"/></symbol><symbol id="icon-twitter" viewBox="0 0 30 24">
<path d="M29.7691 2.8412C28.6707 3.32304 27.5002 3.64242 26.2799 3.7975C27.5353 3.04797 28.4934 1.87013 28.9439 0.450457C27.7734 1.1483 26.4811 1.64121 25.1039 1.91629C23.9925 0.732915 22.4086 0 20.6806 0C17.328 0 14.629 2.7212 14.629 6.05717C14.629 6.53716 14.6696 6.99869 14.7693 7.43807C9.73486 7.19254 5.28013 4.77964 2.28755 1.10399C1.76509 2.01044 1.45864 3.04797 1.45864 4.16488C1.45864 6.26209 2.53862 8.12114 4.14845 9.19744C3.17554 9.17898 2.22109 8.89652 1.41248 8.4516C1.41248 8.47006 1.41248 8.49406 1.41248 8.51806C1.41248 11.4608 3.51154 13.9051 6.26412 14.4682C5.7712 14.6029 5.23398 14.6675 4.67645 14.6675C4.28876 14.6675 3.89738 14.6454 3.53 14.5641C4.31461 16.9623 6.54104 18.7253 9.1884 18.7826C7.12811 20.3942 4.51214 21.3653 1.68017 21.3653C1.18356 21.3653 0.70726 21.3432 0.230957 21.2822C2.91339 23.0121 6.09243 23.9997 9.5207 23.9997C20.664 23.9997 26.7562 14.7691 26.7562 6.76793C26.7562 6.50024 26.747 6.24178 26.7341 5.98517C27.9359 5.13225 28.9457 4.06703 29.7691 2.8412Z"/>
</symbol><symbol id="icon-volunteur" viewBox="0 0 32 40"><path d="M22.999 12.431a2.393 2.393 0 01-1.683-.686L17.161 7.65a3.858 3.858 0 01-1.14-3.121 3.9 3.9 0 011.735-2.878c1.545-1.033 3.664-.793 5.046.566l.225.222.295-.291a3.914 3.914 0 012.872-1.129A3.906 3.906 0 0129 2.301c1.374 1.509 1.258 3.952-.259 5.446l-4.057 3.998a2.393 2.393 0 01-1.685.686zm-3.107-9.422c-.361 0-.717.1-1.022.304a1.883 1.883 0 00-.857 1.404c-.053.56.149 1.11.554 1.508l4.155 4.095a.402.402 0 00.56 0l4.056-3.998c.762-.75.845-1.95.185-2.674a1.917 1.917 0 00-1.381-.629c-.531-.001-1.037.182-1.414.554l-.997.982a1 1 0 01-1.404 0l-.927-.913a2.173 2.173 0 00-1.508-.633zM5.078 30H1.996A1.998 1.998 0 010 28.004V16.996C0 15.895.895 15 1.996 15h3.929a1.999 1.999 0 011.99 2.149l-.847 11.01A2.006 2.006 0 015.078 30zm0-2v1-1zm.842-11.004L1.996 17 2 28.004 5.075 28l.845-11.004zM18 29c-3.259 0-6.831-.696-9.553-1.863l-2.543-1.09a1 1 0 11.788-1.837l2.543 1.09C11.721 26.364 14.998 27 18 27c3.855 0 6.927-1.308 10.844-3.154C29.917 23.341 30 22.801 30 22.647c0-.213-.063-.384-.188-.51-.158-.158-.946-.189-2.131.249a7.262 7.262 0 01-.759.24c-3.367.868-8.02 1.053-11.577.46a1 1 0 01-.825-1.128.99.99 0 011.109-.852c1.96.235 3.554.199 4.871-.11.462-.069.744-.396.744-.773a.76.76 0 00-.68-.757c-1.918-.236-4.356-.572-6.766-1.15A13.735 13.735 0 0011 18c-1.336 0-2.201.334-3.615.923-.509.215-1.095-.028-1.308-.538s.028-1.096.538-1.308C8.223 16.407 9.32 16 11 16c1.181 0 2.521.192 3.265.372 2.312.554 4.677.88 6.479 1.103 1.453.18 2.499 1.358 2.499 2.749 0 .367-.073.721-.208 1.046 1.216-.124 2.374-.317 3.387-.579.193-.05.378-.11.566-.18 1.095-.406 3.104-.919 4.238.213.5.501.774 1.183.774 1.923 0 .578-.225 2.028-2.304 3.007C26.371 27.223 22.602 29 18 29z"/></symbol><symbol id="icon-whatsup"><path d="M10.002 0h-.005C4.485 0 0 4.485 0 10c0 2.188.705 4.215 1.904 5.861L.658 19.576 4.5 18.347A9.913 9.913 0 0010.002 20C15.517 20 20 15.514 20 10S15.516 0 10.002 0zm5.82 14.121c-.242.681-1.2 1.246-1.963 1.412-.523.11-1.205.2-3.503-.753-2.938-1.217-4.831-4.204-4.978-4.397C5.236 10.188 4.19 8.8 4.19 7.366c0-1.435.729-2.133 1.022-2.433.242-.247.64-.36 1.023-.36.124 0 .235.007.335.012.294.013.441.03.635.494.241.581.829 2.016.899 2.163.071.148.142.348.042.542-.094.2-.176.288-.324.458-.147.17-.287.3-.434.483-.135.159-.288.329-.118.623.17.287.758 1.246 1.623 2.016 1.116.993 2.02 1.311 2.345 1.446.24.1.528.076.705-.111.223-.242.5-.642.78-1.035.2-.283.453-.318.718-.218.27.094 1.699.8 1.993.947.293.147.487.217.559.34.07.124.07.706-.172 1.388z"/></symbol></svg>

<svg xmlns="http://www.w3.org/2000/svg" xmlns:xlink="http://www.w3.org/1999/xlink"><defs><linearGradient id="paint0_linear" x1="16.842" y1="1.829" x2="52.588" y2="13.732" gradientUnits="userSpaceOnUse"><stop offset="100%" stop-color="#FFC341"/><stop offset=".964" stop-color="#FFD701"/></linearGradient><linearGradient id="paint1_linear" x1="30.632" y1="8.029" x2="55.51" y2="19.074" gradientUnits="userSpaceOnUse"><stop offset="100%" stop-color="#FFC341"/><stop offset=".964" stop-color="#FFD701"/></linearGradient></defs><symbol id="icon-arrow" viewBox="0 0 900 1000"><path fill="#66d0f8" d="M216 0l215 622-215-118L0 622z"/></symbol><symbol id="icon-case" viewBox="0 0 100 125"><path style="text-indent:0;text-transform:none;block-progression:tb" d="M37 15c-3.826 0-7 3.174-7 7v3H12c-3.826 0-7 3.174-7 7v46c0 3.826 3.174 7 7 7h76c3.826 0 7-3.174 7-7V32c0-3.826-3.174-7-7-7H70v-3c0-3.826-3.174-7-7-7zm0 6h26c.606 0 1 .394 1 1v3H36v-3c0-.606.394-1 1-1zM12 31h76c.606 0 1 .394 1 1v6.063C80.053 44.578 65.912 49 50 49c-15.912 0-30.053-4.42-39-10.938V32c0-.606.394-1 1-1zm-1 14.25c7.829 4.748 17.832 7.997 29 9.219V59c0 2.718 2.282 5 5 5h10c2.718 0 5-2.282 5-5v-4.531c11.168-1.222 21.171-4.47 29-9.219V78c0 .606-.394 1-1 1H12c-.606 0-1-.394-1-1zm35 9.688c1.32.056 2.656.062 4 .062 1.344 0 2.68-.006 4-.063V58h-8z" color="#000"/></symbol><symbol id="icon-checkmark"><rect x="3" y="3" width="58" height="58" rx="29" stroke="url(#paint0_linear)" stroke-width="6"/><path d="M18 27.88L32.197 43 66 7" stroke="url(#paint1_linear)" stroke-width="9" stroke-linecap="round" stroke-linejoin="round"/></symbol><symbol id="icon-fb" viewBox="0 0 15 28"><path d="M11.717 4.917H14.2V.592C13.772.533 12.298.4 10.583.4 7.003.4 4.55 2.652 4.55 6.791v3.81H.6v4.834h3.95V27.6h4.844V15.436h3.79l.602-4.835H9.393v-3.33c0-1.398.377-2.354 2.324-2.354z"/></symbol><symbol id="icon-insta" viewBox="0 0 32 32"><path d="M16 11.2a4.805 4.805 0 00-4.8 4.8c0 2.647 2.153 4.8 4.8 4.8s4.8-2.153 4.8-4.8-2.153-4.8-4.8-4.8z"/><path fill-rule="evenodd" clip-rule="evenodd" d="M3.2 23.481V8.52A5.319 5.319 0 018.519 3.2h14.962A5.32 5.32 0 0128.8 8.52v14.96a5.32 5.32 0 01-5.32 5.32H8.52a5.319 5.319 0 01-5.32-5.32zm5.547-10.193c-2.18 6.315 3.65 12.144 9.965 9.966a7.344 7.344 0 004.541-4.542c2.179-6.314-3.65-12.144-9.965-9.965a7.345 7.345 0 00-4.541 4.542zM24 8.8a1.6 1.6 0 100-3.2 1.6 1.6 0 000 3.2z"/></symbol><symbol id="icon-location" viewBox="0 0 100 125"><path d="M50 16.8c-12.8 0-23.2 10.4-23.2 23.2 0 3.4.8 6.9 2.3 10 2 4.9 18.7 31.1 19.4 32.2.3.5.9.8 1.5.8s1.2-.3 1.5-.8c.7-1.1 17.4-27.4 19.6-32.2 1.5-3.2 2.3-6.6 2.3-10.1-.2-12.6-10.6-23.1-23.4-23.1zm-.1 32c-4.8 0-8.6-3.9-8.6-8.6.1-4.8 4-8.7 8.6-8.7 4.8 0 8.6 3.9 8.6 8.6 0 4.8-3.8 8.7-8.6 8.7z"/></symbol><symbol id="icon-play"><path d="M15 9.5L0 19V0l15 9.5z" fill="#1FC0FC"/></symbol><symbol id="icon-religion" viewBox="21 20 100 115"><path d="M104.4 39.8c1.1-1.1 1.1-2.8.1-3.9l-2-2.1-2 2.1c-1 1.1-1 2.7 0 3.8 1.1 1.1 2.8 1.2 3.9.1zm-4.6 21.5c0 15-11.5 27.4-26.2 28.8v-4.8c12-1.4 21.4-11.6 21.4-24V42.7h-5.5v18.6c0 9.3-6.9 17.1-15.9 18.4v-4.8c6.3-1.3 11.1-6.9 11.1-13.6V42.7h-5.5v18.6c0 3.6-2.4 6.8-5.6 7.9V42.7h-5.5v26.5c-3.3-1.1-5.6-4.2-5.6-7.9V42.7H57v18.6c0 6.7 4.8 12.3 11.1 13.6v4.8c-9-1.3-15.9-9.1-15.9-18.4V42.7h-5.5v18.6c0 12.4 9.4 22.6 21.4 24v4.8c-14.7-1.4-26.2-13.8-26.2-28.8V42.7h-5.5v18.6c0 18.1 14 32.9 31.7 34.3v9.6h-9.9v5.5h25.4v-5.5h-9.9v-9.6c17.7-1.4 31.7-16.2 31.7-34.3V42.7h-5.5v18.6zm-5.6-21.5c1.1-1.1 1.1-2.8.1-3.9l-2-2.1-2 2.1c-1 1.1-1 2.7 0 3.8 1 1.1 2.8 1.2 3.9.1zm-10.3 0c1.1-1 1.1-2.8.1-3.9l-2-2.1-2 2.1c-1 1.1-1 2.7 0 3.8 1 1.1 2.8 1.2 3.9.1zm-11.1 0c1.1-1.1 1.1-2.8.1-3.9l-2-2.1-2 2.1c-1 1.1-1 2.7 0 3.8 1 1.1 2.8 1.2 3.9.1zm-11.1 0c1.1-1.1 1.1-2.8.1-3.9l-2-2.1-2 2.1c-1 1.1-1 2.7 0 3.8 1 1.1 2.7 1.2 3.9.1zm-10.3 0c1.1-1.1 1.1-2.8.1-3.9l-2-2.1-2 2.1c-1 1.1-1 2.7 0 3.8 1 1.1 2.8 1.2 3.9.1zm-10.3 0c1.1-1.1 1.1-2.8.1-3.9l-2-2.1-2 2.1c-1 1.1-1 2.7 0 3.8 1 1.1 2.8 1.2 3.9.1z"/></symbol><symbol id="icon-star" viewBox="8 9 90 100"><path d="M82.386 66.767L72.704 50l9.708-16.813a2.396 2.396 0 00-2.076-3.594H60.922L52.076 14.27a2.4 2.4 0 00-4.152 0l-8.847 15.323H19.663a2.398 2.398 0 00-2.076 3.594L27.295 50l-9.708 16.813a2.398 2.398 0 002.076 3.595h19.414l8.847 15.323a2.397 2.397 0 004.152 0l8.846-15.323h19.414a2.397 2.397 0 002.05-3.641zm-6.201-32.381l-6.247 10.82-6.248-10.82h12.495zM67.171 50l-9.016 15.615H41.844L32.83 50l9.015-15.614h16.311L67.171 50zM50 20.26l5.388 9.332H44.612L50 20.26zM23.813 34.386H36.31l-6.249 10.82-6.248-10.82zm0 31.229l6.248-10.822 6.249 10.822H23.813zM50 79.74l-5.388-9.332h10.776L50 79.74zm13.689-14.125l6.248-10.822 6.247 10.822H63.689z"/></symbol><symbol id="icon-student" viewBox="0 0 100 125"><path d="M49.999 60.049a2.5 2.5 0 01-1.207-.311L1.293 33.566a2.498 2.498 0 01-.001-4.377l47.5-26.227a2.502 2.502 0 012.417 0l47.5 26.227a2.5 2.5 0 01-.002 4.377L51.205 59.738c-.375.207-.79.311-1.206.311zM7.676 31.375l42.323 23.32 42.324-23.32L50 8.006 7.676 31.375z"/><path d="M17.5 54.708a2.5 2.5 0 01-2.5-2.5V41.064a2.5 2.5 0 115 0v11.144a2.5 2.5 0 01-2.5 2.5zm65 0a2.5 2.5 0 01-2.5-2.5V41.064a2.5 2.5 0 115 0v11.144a2.5 2.5 0 01-2.5 2.5z"/><path d="M50 77.517c-19.299 0-35-10.876-35-24.245a2.5 2.5 0 115 0c0 10.611 13.458 19.245 30 19.245s30-8.634 30-19.245a2.5 2.5 0 115 0c0 13.369-15.701 24.245-35 24.245zM26.751 46.092a2.5 2.5 0 01-1.175-4.708l23.116-12.287a2.5 2.5 0 012.347 4.415L27.922 45.799a2.485 2.485 0 01-1.171.293z"/><path d="M26.375 85.226a2.5 2.5 0 01-2.5-2.5V44.975a2.5 2.5 0 115 0v37.751a2.5 2.5 0 01-2.5 2.5z"/><path d="M31.5 97.35H21.25a2.5 2.5 0 01-2.5-2.5V88.1c0-4.204 3.42-7.625 7.625-7.625S34 83.896 34 88.1v6.75a2.5 2.5 0 01-2.5 2.5zm-7.75-5H29V88.1c0-1.447-1.178-2.625-2.625-2.625S23.75 86.652 23.75 88.1v4.25z"/></symbol><symbol id="icon-telegram"><path d="M8.633 11.863l-.364 5.026c.52 0 .746-.22 1.016-.483l2.441-2.291 5.059 3.637c.927.508 1.581.24 1.831-.838l3.32-15.275h.001c.295-1.347-.495-1.874-1.4-1.543L1.022 7.432C-.31 7.939-.29 8.668.795 8.999l4.99 1.523 11.59-7.12c.545-.354 1.04-.158.633.197l-9.375 8.264z"/></symbol><symbol id="icon-twitter"><path d="M29.77 2.841a12.625 12.625 0 01-3.49.956A6.022 6.022 0 0028.944.45a12.103 12.103 0 01-3.84 1.466 6.054 6.054 0 00-10.475 4.14c0 .481.04.943.14 1.382C9.735 7.193 5.28 4.78 2.288 1.104a6.097 6.097 0 00-.83 3.06 6.064 6.064 0 002.69 5.033 5.98 5.98 0 01-2.736-.745v.066c0 2.943 2.1 5.387 4.852 5.95-.493.135-1.03.2-1.588.2a5.35 5.35 0 01-1.146-.104c.785 2.398 3.011 4.161 5.658 4.219a12.168 12.168 0 01-7.508 2.582c-.496 0-.973-.022-1.449-.083A17.047 17.047 0 009.521 24c11.143 0 17.235-9.23 17.235-17.232 0-.268-.009-.526-.022-.783a12.081 12.081 0 003.035-3.144z"/></symbol><symbol id="icon-volunteur" viewBox="0 0 32 40"><path d="M22.999 12.431a2.393 2.393 0 01-1.683-.686L17.161 7.65a3.858 3.858 0 01-1.14-3.121 3.9 3.9 0 011.735-2.878c1.545-1.033 3.664-.793 5.046.566l.225.222.295-.291a3.914 3.914 0 012.872-1.129A3.906 3.906 0 0129 2.301c1.374 1.509 1.258 3.952-.259 5.446l-4.057 3.998a2.393 2.393 0 01-1.685.686zm-3.107-9.422c-.361 0-.717.1-1.022.304a1.883 1.883 0 00-.857 1.404c-.053.56.149 1.11.554 1.508l4.155 4.095a.402.402 0 00.56 0l4.056-3.998c.762-.75.845-1.95.185-2.674a1.917 1.917 0 00-1.381-.629c-.531-.001-1.037.182-1.414.554l-.997.982a1 1 0 01-1.404 0l-.927-.913a2.173 2.173 0 00-1.508-.633zM5.078 30H1.996A1.998 1.998 0 010 28.004V16.996C0 15.895.895 15 1.996 15h3.929a1.999 1.999 0 011.99 2.149l-.847 11.01A2.006 2.006 0 015.078 30zm0-2v1-1zm.842-11.004L1.996 17 2 28.004 5.075 28l.845-11.004zM18 29c-3.259 0-6.831-.696-9.553-1.863l-2.543-1.09a1 1 0 11.788-1.837l2.543 1.09C11.721 26.364 14.998 27 18 27c3.855 0 6.927-1.308 10.844-3.154C29.917 23.341 30 22.801 30 22.647c0-.213-.063-.384-.188-.51-.158-.158-.946-.189-2.131.249a7.262 7.262 0 01-.759.24c-3.367.868-8.02 1.053-11.577.46a1 1 0 01-.825-1.128.99.99 0 011.109-.852c1.96.235 3.554.199 4.871-.11.462-.069.744-.396.744-.773a.76.76 0 00-.68-.757c-1.918-.236-4.356-.572-6.766-1.15A13.735 13.735 0 0011 18c-1.336 0-2.201.334-3.615.923-.509.215-1.095-.028-1.308-.538s.028-1.096.538-1.308C8.223 16.407 9.32 16 11 16c1.181 0 2.521.192 3.265.372 2.312.554 4.677.88 6.479 1.103 1.453.18 2.499 1.358 2.499 2.749 0 .367-.073.721-.208 1.046 1.216-.124 2.374-.317 3.387-.579.193-.05.378-.11.566-.18 1.095-.406 3.104-.919 4.238.213.5.501.774 1.183.774 1.923 0 .578-.225 2.028-2.304 3.007C26.371 27.223 22.602 29 18 29z"/></symbol><symbol id="icon-whatsup"><path d="M10.002 0h-.005C4.485 0 0 4.485 0 10c0 2.188.705 4.215 1.904 5.861L.658 19.576 4.5 18.347A9.913 9.913 0 0010.002 20C15.517 20 20 15.514 20 10S15.516 0 10.002 0zm5.82 14.121c-.242.681-1.2 1.246-1.963 1.412-.523.11-1.205.2-3.503-.753-2.938-1.217-4.831-4.204-4.978-4.397C5.236 10.188 4.19 8.8 4.19 7.366c0-1.435.729-2.133 1.022-2.433.242-.247.64-.36 1.023-.36.124 0 .235.007.335.012.294.013.441.03.635.494.241.581.829 2.016.899 2.163.071.148.142.348.042.542-.094.2-.176.288-.324.458-.147.17-.287.3-.434.483-.135.159-.288.329-.118.623.17.287.758 1.246 1.623 2.016 1.116.993 2.02 1.311 2.345 1.446.24.1.528.076.705-.111.223-.242.5-.642.78-1.035.2-.283.453-.318.718-.218.27.094 1.699.8 1.993.947.293.147.487.217.559.34.07.124.07.706-.172 1.388z"/></symbol></svg>
